public/assets/images/six.svg

<svg width="34" height="41" viewBox="0 0 34 41" fill="none" xmlns="http://www.w3.org/2000/svg">
<path d="M12.96 16.72C17.24 16.72 20.36 17.66 22.32 19.54C24.32 21.38 25.32 24.28 25.32 28.24C25.32 32.36 24.3 35.42 22.26 37.42C20.26 39.42 17.16 40.42 12.96 40.42C8.44 40.42 5.16 39.22 3.12 36.82C1.08 34.42 0.0600002 30.72 0.0600002 25.72V14.26C0.0600002 9.42 1.14 5.92 3.3 3.76C5.5 1.6 9.06 0.519997 13.98 0.519997C16.98 0.519997 19.74 0.959997 22.26 1.84C22.86 2.04 23.24 2.26 23.4 2.5C23.6 2.7 23.7 3.06 23.7 3.58V4.06C23.7 5.26 23.24 5.64 22.32 5.2C19.88 4.16 17 3.64 13.68 3.64C9.8 3.64 7.1 4.46 5.58 6.1C4.1 7.7 3.36 10.38 3.36 14.14V18.04C6.24 17.16 9.44 16.72 12.96 16.72ZM12.72 19.72C9.32 19.72 6.2 20.18 3.36 21.1V25.54C3.36 29.5 4.04 32.46 5.4 34.42C6.76 36.34 9.36 37.3 13.2 37.3C16.32 37.3 18.56 36.6 19.92 35.2C21.28 33.8 21.96 31.54 21.96 28.42C21.96 25.3 21.24 23.08 19.8 21.76C18.4 20.4 16.04 19.72 12.72 19.72ZM28.2473 37.78C28.1273 36.7 28.5273 35.94 29.4473 35.5C30.3673 35.06 31.2873 35.06 32.2073 35.5C33.1273 35.94 33.5273 36.7 33.4073 37.78C33.4073 38.5 33.1473 39.12 32.6273 39.64C32.1473 40.12 31.5473 40.36 30.8273 40.36C30.1073 40.36 29.4873 40.12 28.9673 39.64C28.4873 39.12 28.2473 38.5 28.2473 37.78Z" fill="url(#paint0_radial_646_4961)"/>
<defs>
<radialGradient id="paint0_radial_646_4961" cx="0" cy="0" r="1" gradientUnits="userSpaceOnUse" gradientTransform="translate(48.791 48.0908) rotate(-139.836) scale(51.8582 48.4334)">
<stop stop-color="#C6B38A"/>
<stop offset="0.463601" stop-color="#F3C691"/>
<stop offset="1" stop-color="#B4703E"/>
</radialGradient>
</defs>
</svg>

<svg xmlns="http://www.w3.org/2000/svg" width="34" height="41" fill="none" xmlns:v="https://vecta.io/nano"><path d="M12.96 16.72c4.28 0 7.4.94 9.36 2.82 2 1.84 3 4.74 3 8.7 0 4.12-1.02 7.18-3.06 9.18-2 2-5.1 3-9.3 3-4.52 0-7.8-1.2-9.84-3.6S.06 30.72.06 25.72V14.26c0-4.84 1.08-8.34 3.24-10.5C5.5 1.6 9.06.52 13.98.52c3 0 5.76.44 8.28 1.32.6.2.98.42 1.14.66.2.2.3.56.3 1.08v.48c0 1.2-.46 1.58-1.38 1.14-2.44-1.04-5.32-1.56-8.64-1.56-3.88 0-6.58.82-8.1 2.46-1.48 1.6-2.22 4.28-2.22 8.04v3.9c2.88-.88 6.08-1.32 9.6-1.32zm-.24 3c-3.4 0-6.52.46-9.36 1.38v4.44c0 3.96.68 6.92 2.04 8.88 1.36 1.92 3.96 2.88 7.8 2.88 3.12 0 5.36-.7 6.72-2.1s2.04-3.66 2.04-6.78-.72-5.34-2.16-6.66c-1.4-1.36-3.76-2.04-7.08-2.04zm15.527 18.06c-.12-1.08.28-1.84 1.2-2.28s1.84-.44 2.76 0 1.32 1.2 1.2 2.28c0 .72-.26 1.34-.78 1.86-.48.48-1.08.72-1.8.72s-1.34-.24-1.86-.72c-.48-.52-.72-1.14-.72-1.86z" fill="url(#A)"/><defs><radialGradient id="A" cx="0" cy="0" r="1" gradientUnits="userSpaceOnUse" gradientTransform="translate(48.791 48.0908) rotate(-139.836) scale(51.8582 48.4334)"><stop stop-color="#c6b38a"/><stop offset=".464" stop-color="#f3c691"/><stop offset="1" stop-color="#b4703e"/></radialGradient></defs></svg>
